X:79802
T:Loch Tay Boat Song
H: Mrs Cameron of Inverallort is credited for collecting the melody of this song back in 1870. Sir Harold Boulton ( 1859-1935) , who was a writer of songs in the Gaelic language wrote the lyrics and it appears in his 'Songs of the North' collection. He also wrote lyrics for The Skye boat song.
C: R. MacLeod(Arr A.MacDonald SG)
B: Scots Guards II(122)
O:Kevin Fraser
Z:Kevin Fraser
Q:3/8=60
K:HP
M:12/8
L:1/8
R:Aire
U: R = ///
U: r = //
U: V = !accent!
V:M gstem=up stem=down name="Melody"
V:H gstem=up stem=down name="Harmony"
V:C gstem=up stem=down name="C-Harmony"
V:S gstem=up stem=down dyn=up stafflines=1 clef=perc middle=G name="Snare" sname="Snare"
V:B gstem=up stem=down clef=none dyn=up name="Bass"
V:T gstem=up stem=down clef=none dyn=up name="Tenor"
I:MIDI=program 110
%%MIDI gracedivider 4
%%MIDI gchord
%%MIDI beatstring 
%%landscape
% I:linebreak $
%%score {M H}
%%MIDI program 109 #bagpipes
%%MIDI vol 100
%%barsperscore 4
[V:M][| {gcd}c2B {g}A2{d}c {gef}e2{A}e {g}cB{G}A | {ag}a2g {fg}f2d {gef}e3 {gcd}c2{e}A | {Gdc}d2e {gfg}f2e {gef}e3 {gcd}c2{e}A | {g}c2B {G}A2c {Gdc}d2c {gBd}B2{e}A |  
[V:H][| {gef}e2d {g}c2e    {ag}a3      edc       | {g}f2e  {g}d2c  {gcd}c3 {g}edc      | {g}B2c   {g}d2c   {gcd}c3 {g}e2c      | {gef}e2d {g}d2e  {g}f2e {gde}d3 | 
[V:M] | {gcd}c2B {g}A2{d}c {gef}e2{A}e {g}cB{G}A | {ag}a2g {fg}f2d {gef}e3 {gcd}c2{e}A | {Gdc}d2e {gfg}f2e {gef}e3 {gcd}c2{e}A | {g}c2B {G}A2{d}B {G}A3 {gcd}c2e |]  
[V:H] | {gef}e2d {g}c2e    {ag}a3      edc       | {g}f2e  {g}d2c  {gcd}c3 {g}edc      | {g}B2c   {g}d2c   {gcd}c3 {g}e2c      | {gef}e2d {g}c2d  {g}c6          |]
[V:M][| {ag}a2g  {fg}f2e   {g}eA2      {gcd}c2e  | {ag}a2g {fg}f2e {gef}e3 {gcd}c2{e}A | {Gdc}d2e {gfg}f2e {gef}e3 {gcd}c2{e}A | {g}c2B {G}A2c {Gdc}d2c {gBd}B2{e}A | 
[V:H][| {gfg}f2e {gde}d2c  {g}cA2      {ag}a2g   | {gfg}f2e {gde}d2B {gcd}e3 {ag}a2e   | {g}B2c   {g}d2c   {gcd}c3 {g}e2c      | {gef}e2d {g}d2e  {g}f2e {gde}d3 | 
[V:M] | {ag}a2g  {fg}f2e   {g}eA2      {gcd}c2e  | {ag}a2g {fg}f2e {gef}e3 {gcd}c2{e}A | {Gdc}d2e {gfg}f2e {gef}e3 {gcd}c2{e}A | {g}c2B {G}A2{d}B {G}A3 {GAG}A3 |]  
[V:H] | {gfg}f2e {gde}d2c  {g}cA2      {ag}a2g   | {gfg}f2e {gde}d2B {gcd}e3 {ag}a2e   | {g}B2c   {g}d2c   {gcd}c3 {g}e2c      | {gef}e2d {g}c2d  {g}c6          |] 
W:
W: Scots Guards' has this (melody only) written as a 4/4.
W:


